X: 1
P: Lewis J. McLeod
R: strathspey
C: David White, Newcastle Collection, arr. T. Traub 8-21-04
M: 4/4
L: 1/8
K: Dm
A|"Dm"d2 A>G FF|"A"E>FE>A "Dm"F<D D2|"Gm"B>AG>B "Dm"A>FD>F|"E"E>FE>D "A"C<E A2|"Dm"d2 A>G FF|"A"E>FE>A "Dm"F<D D2|
"Gm"B>AG>B "Dm"A>FD>F|"A"(3EFG (3AGA "Dm"F<D D2||\
K: D
"D"d2 f>e d<A A2|"Em"e2 g>f "A"e<A A2|"D7"f2 a<f "G"B2 g2|
"A"(3fed (3cde "D"fA|"D"d2 f>e d<A A2|"Em"e2 g>f "A"e<A A2|"D7"f2 a<f "G"B2 g2|"A"(3fed (3cde "D"fA||
